shader_type canvas_item;

instance uniform vec2 size;
instance uniform vec2 scale;

void fragment() {
	TEXTURE_PIXEL_SIZE;
}

//void light() {
//	// Called for every pixel for every light affecting the CanvasItem.
//	// Uncomment to replace the default light processing function with this one.
//}
